svg/UnitedNationsOCHA-Humanitarian/disaster_cold_wave_icon.svg

<svg xmlns="http://www.w3.org/2000/svg" viewBox="0 0 32 32" enable-background="new 0 0 32 32"><path fill="#407cca" d="m13.217 23.477c0 1.344-1.091 2.438-2.438 2.438-1.347 0-2.436-1.095-2.436-2.438 0-.969.572-1.801 1.392-2.192v-5.809h2.089v5.809c.822.391 1.393 1.223 1.393 2.192m3.48-11.832h9.05v-1.391h-9.05v1.391m-1.394 11.832c0 2.492-2.028 4.523-4.523 4.523-2.494 0-4.523-2.031-4.523-4.523 0-1.531.797-2.971 2.087-3.801v-13.249c.006-1.34 1.095-2.427 2.437-2.427 1.339 0 2.43 1.087 2.436 2.427 0 .003 0 .007 0 .008v13.241c1.289.828 2.086 2.269 2.086 3.801m-.694 0c0-1.352-.736-2.621-1.917-3.305l-.174-.102v-13.635c0-.959-.778-1.739-1.737-1.739-.961 0-1.742.779-1.742 1.739v13.635l-.172.102c-1.181.686-1.916 1.953-1.916 3.305 0 2.111 1.719 3.828 3.828 3.828 2.112 0 3.83-1.717 3.83-3.828"/></svg>

<?xml version="1.0" encoding="utf-8"?>
<!-- Generator: Adobe Illustrator 16.0.3, SVG Export Plug-In . SVG Version: 6.00 Build 0)  -->
<!DOCTYPE svg PUBLIC "-//W3C//DTD SVG 1.1//EN" "http://www.w3.org/Graphics/SVG/1.1/DTD/svg11.dtd">
<svg version="1.1" id="Layer_1" xmlns="http://www.w3.org/2000/svg" xmlns:xlink="http://www.w3.org/1999/xlink" x="0px" y="0px"
	 width="32px" height="32px" viewBox="0 0 32 32" enable-background="new 0 0 32 32" xml:space="preserve">
<path fill="#407CCA" d="M13.217,23.477c0,1.344-1.091,2.438-2.438,2.438c-1.347,0-2.436-1.095-2.436-2.438
	c0-0.969,0.572-1.801,1.392-2.192v-5.809h2.089v5.809C12.646,21.676,13.217,22.508,13.217,23.477z M16.697,11.645h9.047v-1.391
	h-9.047V11.645L16.697,11.645z M15.303,23.477c0,2.492-2.028,4.523-4.523,4.523c-2.494,0-4.523-2.031-4.523-4.523
	c0-1.531,0.797-2.971,2.087-3.801V6.427C8.35,5.087,9.439,4,10.781,4c1.339,0,2.43,1.087,2.436,2.427c0,0.003,0,0.007,0,0.008
	v13.241C14.506,20.504,15.303,21.945,15.303,23.477z M14.609,23.477c0-1.352-0.736-2.621-1.917-3.305l-0.174-0.102V6.435
	c0-0.959-0.778-1.739-1.737-1.739c-0.961,0-1.742,0.779-1.742,1.739l0,0V20.07l-0.172,0.102c-1.181,0.686-1.916,1.953-1.916,3.305
	c0,2.111,1.719,3.828,3.828,3.828C12.891,27.305,14.609,25.588,14.609,23.477z"/>
</svg>
